X: 0593
T: FANNY ELSSLER'S HORNPIPE
B: Oliver Ditson "The Boston Collection of Instrumental Music" 1910 p.59 #3
F: http://conquest.imslp.info/files/imglnks/usimg/8/8f/IMSLP175643-PMLP309456-bostoncollection00bost_bw.pdf
M: 2/4
L: 1/16
K: F
fg |\
"_>"agfe "_>"gfed | cdc=B cdef | cdc=B cdef | ga^fa g2=fg |\
agfe gfed | cdc=B cdef | defg efga | fcag f2 H:|
fg |\
("_>"af).f.f ("_>"ge).e.e | ("_>"fd).d.d ("_>"e^c).c.c | (dAfe defd) | eAaA e2fg |\
("_>"af).f.f ("_>"ge).e.e | ("_>"fd).d.d ("_>"e^c).c.c | dAdf agef | dAfe d2 "^D.C.":|

%%sep 1 1 500
%%sep 1 1 500
